data/styles/clear/style-night/symbols/equestrian-m.svg

<svg height="24" viewBox="0 0 24 24" width="24"><g fill="none" fill-rule="evenodd"><circle cx="12" cy="12" fill="#fff" opacity=".4" r="12"/><circle cx="12" cy="12" fill="#3d3d36" r="11"/><path d="m10.2469561 6c-.75562662 0-1.20034437.25632196-1.20034437.25632196l.2558111.49128376-1.51518879 1.08936834.2558111.81168621 1.0822777-.25632197c.75562661.54682019 1.57028656.18796944 1.63325546-1.11072849.3778133.8885828.0590333 1.57210803-.5706555 1.70881307v1.11072852l-1.83003324 1.965135c-.12593777.1367051-.18890666.4143872 0 .6194448l1.0822777 1.3670504.68872214.4058431.5706556-.7476057-.76743333-.3417626-.62968884-.9612074.88549997-.5980845s.6375599 1.2858818 1.7709998 1.9010545l1.1216333-1.0893683-.6296888 1.0252878c-.3778134.6835252-.1771 1.4439471.4525888 1.9224147l1.0035666.7476057-.5706555 1.3670505v.7476057h-.8854999l.1377444-.6835252.8067888-1.2388895-.7477555-.4699236-.8854999 1.3670505-.2558111 1.0252878h2.7745665v-.6835252l.8264666-1.7728936-.8264666-1.174809s1.2593776-.6749811 1.2593776-1.836974c0-.0212768.0003344-.0601721 0-.0854407 1.2872994-.2696404 1.4711018 1.6776498 1.0035666 2.8195416h1.4561555c0-1.9822232-.7634977-3.4176261-1.7709999-3.4176261-.2902714 0-.5480169.1039922-.7477555.2136016-.0990859-.3972997-.3842764-.8982634-1.318411-1.174809l-1.3971221-1.0252878c.5037511-1.23034546.4407822-4.2933929-2.5187554-4.2933929zm-2.16184972 4.0824742-1.41489361.7216495-.67021277.8041237.89361702.4536083.29787234-.5360825.83776596-.5773196h.48404255l.83776596-.8659794z" fill="#fff" fill-rule="nonzero" opacity=".6"/></g></svg>

<svg width="24" height="24" viewBox="0 0 24 24">
  <g fill="none" fill-rule="evenodd">
    <circle cx="12" cy="12" r="12" fill="#FFF" opacity=".4"/>
    <circle cx="12" cy="12" r="11" fill="#3D3D36"/>
    <path fill="#FFF" fill-rule="nonzero" d="M10.2469561,6 C9.49132948,6 9.04661173,6.25632196 9.04661173,6.25632196 L9.30242283,6.74760572 L7.78723404,7.83697406 L8.04304514,8.64866027 L9.12532284,8.3923383 C9.88094945,8.93915849 10.6956094,8.58030774 10.7585783,7.28160981 C11.1363916,8.17019261 10.8176116,8.85371784 10.1879228,8.99042288 L10.1879228,10.1011514 L8.35788956,12.0662864 C8.23195179,12.2029915 8.1689829,12.4806736 8.35788956,12.6857312 L9.44016726,14.0527816 L10.1288894,14.4586247 L10.699545,13.711019 L9.93211167,13.3692564 L9.30242283,12.408049 L10.1879228,11.8099645 C10.1879228,11.8099645 10.8254827,13.0958463 11.9589226,13.711019 L13.0805559,12.6216507 L12.4508671,13.6469385 C12.0730537,14.3304637 12.2737671,15.0908856 12.9034559,15.5693532 L13.9070225,16.3169589 L13.336367,17.6840094 L13.336367,18.4316151 L12.4508671,18.4316151 L12.5886115,17.7480899 L13.3954003,16.5092004 L12.6476448,16.0392768 L11.7621449,17.4063273 L11.5063338,18.4316151 L14.2809003,18.4316151 L14.2809003,17.7480899 L15.1073669,15.9751963 L14.2809003,14.8003873 C14.2809003,14.8003873 15.5402779,14.1254062 15.5402779,12.9634133 C15.5402779,12.9421365 15.5406123,12.9032412 15.5402779,12.8779726 C16.8275773,12.6083322 17.0113797,14.5556224 16.5438445,15.6975142 L18,15.6975142 C18,13.715291 17.2365023,12.2798881 16.2290001,12.2798881 C15.9387287,12.2798881 15.6809832,12.3838803 15.4812446,12.4934897 C15.3821587,12.09619 15.0969682,11.5952263 14.1628336,11.3186807 L12.7657115,10.2933929 C13.2694626,9.06304744 13.2064937,6 10.2469561,6 Z M8.08510638,10.0824742 L6.67021277,10.8041237 L6,11.6082474 L6.89361702,12.0618557 L7.19148936,11.5257732 L8.02925532,10.9484536 L8.51329787,10.9484536 L9.35106383,10.0824742 L8.08510638,10.0824742 Z" opacity=".6"/>
  </g>
</svg>
